src/main/resources/icons/AllIcons/general/readerMode.svg

<!-- Copyright 2000-2021 JetBrains s.r.o. Use of this source code is governed by the Apache 2.0 license that can be found in the LICENSE file. -->
<svg width="16" height="16" viewBox="0 0 16 16" fill="none" xmlns="http://www.w3.org/2000/svg">
<path d="M2.17294 3.29323C2.82392 3.08797 3.53941 3 4.22557 3C5.36918 3 6.64962 3.45489 7.5 4.1C7.50001 6.98346 7.49997 11.8459 7.5 13.2143C6.70827 12.7158 5.22256 12.0902 4.22557 12.0902C3.2579 12.0902 2.26091 12.2662 1.43986 12.706C1.25485 12.7985 1.00001 12.6571 1.00001 12.4421V3.8797C1.35189 3.61579 1.73309 3.43985 2.17294 3.29323ZM2.5 10.8929C3.14511 10.6876 3.52181 10.6143 4.22557 10.6143C5.22256 10.6143 6.01184 10.8557 6.80357 11.3542V5.4C6.14658 4.80571 5.22256 4.37 4.22557 4.37C3.52181 4.37 3 4.5 2.5 4.75V10.8929Z" fill="#6E6E6E"/>
<path d="M12.8271 3.29323C12.1761 3.08797 11.4606 3 10.7744 3C9.63082 3 8.35038 3.45489 7.5 4.1C7.49999 6.98346 7.50003 11.8459 7.5 13.2143C8.29173 12.7158 9.77744 12.0902 10.7744 12.0902C11.7421 12.0902 12.7391 12.2662 13.5601 12.706C13.7451 12.7985 14 12.6571 14 12.4421V3.8797C13.6481 3.61579 13.2669 3.43985 12.8271 3.29323ZM12.5 10.8929C11.8549 10.6876 11.4782 10.6143 10.7744 10.6143C9.77744 10.6143 8.98816 10.8557 8.19643 11.3542V5.4C8.85342 4.80571 9.77744 4.37 10.7744 4.37C11.4782 4.37 12 4.5 12.5 4.75V10.8929Z" fill="#6E6E6E"/>
</svg>

<svg width="16" height="16" viewBox="0 0 16 16" fill="none" xmlns="http://www.w3.org/2000/svg"><rect id="frame" width="16" height="16" fill="none"/><path d="M2.173 3.293A6.923 6.923 0 0 1 4.226 3C5.369 3 6.65 3.455 7.5 4.1v9.114c-.792-.498-2.277-1.124-3.274-1.124-.968 0-1.965.176-2.786.616-.185.093-.44-.049-.44-.264V3.88c.352-.264.733-.44 1.173-.587zm.327 7.6c.645-.205 1.022-.279 1.726-.279.997 0 1.786.242 2.578.74V5.4c-.657-.594-1.581-1.03-2.578-1.03-.704 0-1.226.13-1.726.38v6.143z" fill="#6E6E6E"/><path d="M12.827 3.293A6.924 6.924 0 0 0 10.774 3C9.631 3 8.35 3.455 7.5 4.1v9.114c.792-.498 2.277-1.124 3.274-1.124.968 0 1.965.176 2.786.616.185.093.44-.049.44-.264V3.88c-.352-.264-.733-.44-1.173-.587zm-.327 7.6c-.645-.205-1.022-.279-1.726-.279-.997 0-1.786.242-2.578.74V5.4c.657-.594 1.581-1.03 2.578-1.03.704 0 1.226.13 1.726.38v6.143z" fill="#6E6E6E"/></svg>
